X: 1
T: Smash the Windows
T: Roaring Jelly
T: Bris na Fuinneoga
R: jig
Z: 2020 John Chambers <jc:trillian.mit.edu>
S: https://www.facebook.com/groups/Fiddletuneoftheday/ 2020-09-10
S: https://www.facebook.com/groups/Fiddletuneoftheday/photos/
N: There are many versions of this tune, not all quite compatible.
M: 6/8
L: 1/8
K: D
|:\
"D"DED F2A | def "A"ecA | "G"G2B "D"F2A | "Em"E2F "A7"GFE | "D"DED F2A | def "A"ecA |
"G"Bgf "A7"edc |1 "D"d3 d2 :|2 "D"d3 d2 f/g/ |: "D"a2f f2d | A2a agf | "Em"g2e "A7"e2c |
A2g gfe | "D"fed "Em"gfe | "D"aga "G"bag | "D"fed "A7"edc |1 "D"d3 d2 f/g/ :|2 "D"d3 d3 :|
